X:1
T:Moorgate, CMD
T:Moorgate, CMD
T:Frederick James, 1889
T:Public Domain Courtesy of the Cyber Hymnal™
C:Frederick James, 1889
Z:Public Domain
Z:Courtesy of the Cyber Hymnal™
%%score ( 1 2 ) ( 3 4 )
L:1/8
Q:1/4=110
M:4/4
K:Eb
V:1 treble 
V:2 treble 
V:3 bass 
V:4 bass 
V:1
 [EG]2 | [EA]2 [EG]2 [Ec]2 [EB]2 | [FB]3 [FA] [EG]2 [EG]2 | [EG]2 [DF]2 E2 [EA]2 | %4
 ([EG]4 [DF]2) [B,F]2 | [=A,E]2 [B,D]2 [B,G]2 [CF]2 | [FB]2 [Ec]2 [Dd]2 [FB]2 | %7
 [EG]2 [EB]2 [FB]2 [Ec]2 | [DB]6 [DF]2 | E2 [EA]2 [DG]2 [DF]2 | E2 [Ec]2 [FB]2 [FA]2 | %11
 [EG]2 [FB]2 [Ge]2 [Fc]2 | [Fd]6 [Dc]2 | [EB]2 [FA]2 [EG]2 [EA]2 | [DG]2 [DF]2 E2 [EF]2 | %15
 [EG]2 [EA]2 [EG]2 [DF]2 | E6 |] %17
V:2
 x2 | x8 | x8 | x4 E2 x2 | x8 | x8 | x8 | x8 | x8 | E2 x6 | E2 x6 | x8 | x8 | x8 | x4 E2 x2 | x8 | %16
 E6 |] %17
V:3
 [E,B,]2 | [E,C]2 [E,B,]2 [E,A,]2 [E,G,]2 | [D,B,]3 [D,B,] [E,B,]2 [E,B,]2 | %3
 [B,,B,]2 [B,,A,]2 [C,G,]2 [F,A,]2 | [B,,B,]6 [D,F,]2 | [C,F,]2 [B,,F,]2 [E,G,]2 [E,=A,]2 | %6
 [D,B,]2 [C,=A,]2 [B,,B,]2 [D,B,]2 | [E,B,]2 [C,C]2 [F,D]2 [F,=A,]2 | [B,,B,]6 [B,,A,]2 | %9
 [B,,G,]2 [B,,C]2 [B,,B,]2 [=B,,A,]2 | [C,G,]2 [C,A,]2 [D,F,]2 [D,B,]2 | %11
 [E,B,]2 [D,B,]2 [C,B,]2 [F,=A,]2 | [B,,B,]6 [B,,A,]2 | [C,G,]2 [D,F,]2 [E,G,]2 [F,C]2 | %14
 [G,=B,]2 [=B,,G,]2 [C,G,]2 [A,C]2 | [G,B,]2 [F,A,]2 B,2 (B,A,) | [E,G,]6 |] %17
V:4
 x2 | x8 | x8 | x8 | x8 | x8 | x8 | x8 | x8 | x8 | x8 | x8 | x8 | x8 | x8 | x4 B,2 B,,2 | x6 |] %17

